X: 34439
T: Ricketts
R: reel
M: 4/4
K: Gmajor
G2 B>G E2 G>E|D2 E>D B,4|.A2 .B2 .c2 .B2|AGFE DEFD|
G2 B>G E2 G>E|D2 E>D B,4|A2 B2 cAFD|.G2 .B2 G2:|
d d2 B G2 BB|c e2 c A2 cc|B d2 B G2 B2|AGFE DEFD|
B d2 B G2 BB|c e2 c A4|dBGB cAFD|.G2 .B2 G2:|
G2 B>G E2 G>E|D2 E>D B,4|.A2 .B2 .c2 .B2|A>GF>E D>EF>D|
G2 B>G E2 G>E|D2 E>D B,4|A2 B2 c>AF>D|.G2 .B2 G2:|
d d2 B G2 B>B|c e2 c A2 c>c|B d2 B G2 B2|A>GF>E D>EF>D|
B d2 B G2 B>B|c e2 c A4|d>BG>B c>AF>D|.G2 .B2 G2:|

